;FLAVOR:Marlin
;TIME:17789
;Filament used: 13.8361m
;Layer height: 0.28
;MINX:7.136
;MINY:59.5
;MINZ:0.28
;MAXX:203.557
;MAXY:175.5
;MAXZ:21
;Generated with Cura_SteamEngine 4.8.0
M140 S50
M105
M190 S50
M104 S215
M105
M109 S215
M82 ;absolute extrusion mode
; Octoprint's Octolapse plugin required G-code
; Script based on an original created by tjjfvi (https://github.com/tjjfvi)
; An up-to-date version of the tjjfvi's original script can be found
; here:  https://csi.t6.fyi/
; Note - This script will only work in Cura V4.2 and above!
; --- Global Settings
; layer_height = 0.28
; smooth_spiralized_contours = True
; magic_mesh_surface_mode = normal
; machine_extruder_count = 1
; --- Single Extruder Settings
; speed_z_hop = 5
; retraction_amount = 5
; retraction_hop = 0.2
; retraction_hop_enabled = False
; retraction_enable = True
; retraction_speed = 45
; retraction_retract_speed = 45
; retraction_prime_speed = 45
; speed_travel = 150.0

; Ender 3 Custom Start G-code
G92 E0 ; Reset Extruder
G28 ; Home all axes
G1 Z2.0 F3000 ; Move Z Axis up little to prevent scratching of Heat Bed
G1 X0.1 Y20 Z0.3 F5000.0 ; Move to start position
G1 X0.1 Y200.0 Z0.3 F1500.0 E15 ; Draw the first line
G1 X0.4 Y200.0 Z0.3 F5000.0 ; Move to side a little
G1 X0.4 Y20 Z0.3 F1500.0 E30 ; Draw the second line
G92 E0 ; Reset Extruder
G1 Z2.0 F3000 ; Move Z Axis up little to prevent scratching of Heat Bed
G1 X5 Y20 Z0.3 F5000.0 ; Move over to prevent blob squish
G92 E0
G92 E0
G1 F2700 E-5
;LAYER_COUNT:75
;LAYER:0
M107
G0 F6000 X19.078 Y60.29 Z0.28
;TYPE:SKIRT
G1 F2700 E0
G1 F1200 X19.649 Y60.128 E0.02764
G1 X19.971 Y60.041 E0.04317
G1 X20.393 Y59.935 E0.06343
G1 X21.312 Y59.746 E0.10712
G1 X21.943 Y59.662 E0.13676
G1 X22.495 Y59.605 E0.1626
G1 X22.823 Y59.576 E0.17793
G1 X23.288 Y59.542 E0.19964
G1 X23.914 Y59.514 E0.22882
G1 X24.728 Y59.501 E0.26673
G1 X79.063 Y59.5 E2.79679
G1 X79.868 Y59.51 E2.83428
G1 X80.518 Y59.538 E2.86457
G1 X81.121 Y59.582 E2.89273
G1 X81.453 Y59.611 E2.90825
G1 X81.907 Y59.658 E2.9295
G1 X82.835 Y59.795 E2.97318
G1 X83.469 Y59.935 E3.00341
G1 X84.023 Y60.075 E3.03002
G1 X84.355 Y60.165 E3.04604
G1 X84.865 Y60.311 E3.07074
G1 X85.511 Y60.517 E3.10231
G1 X87.824 Y61.336 E3.21657
G1 X90.227 Y62.112 E3.33415
G1 X92.616 Y62.809 E3.45003
G1 X95.076 Y63.452 E3.56843
G1 X97.504 Y64.013 E3.68446
G1 X99.985 Y64.515 E3.80233
G1 X103.593 Y65.112 E3.97262
G1 X105.299 Y65.361 E4.0529
G1 X107.858 Y65.698 E4.17308
G1 X110.361 Y65.954 E4.29024
G1 X112.878 Y66.141 E4.40777
G1 X115.421 Y66.257 E4.5263
G1 X117.913 Y66.3 E4.64236
G1 X120.398 Y66.274 E4.75808
G1 X122.965 Y66.173 E4.8777
G1 X125.442 Y66.006 E4.9933
G1 X127.984 Y65.763 E5.11221
G1 X130.427 Y65.458 E5.22685
G1 X133.035 Y65.059 E5.3497
G1 X133.537 Y64.994 E5.37327
G1 X133.942 Y64.951 E5.39223
G1 X134.357 Y64.915 E5.41163
G1 X134.46 Y64.908 E5.41644
G1 X135.023 Y64.885 E5.44267
G1 X136.113 Y64.868 E5.49344
G1 X143.821 Y64.872 E5.85235
G1 X144.514 Y64.87 E5.88462
G1 X145.671 Y64.863 E5.9385
G1 X155.146 Y64.875 E6.37969
G1 X155.882 Y64.887 E6.41397
G1 X156.161 Y64.896 E6.42697
G1 X156.726 Y64.921 E6.4533
G1 X158.551 Y65.027 E6.53842
G1 X161.079 Y65.103 E6.65619
G1 X163.595 Y65.107 E6.77335
G1 X166.095 Y65.04 E6.8898
G1 X168.571 Y64.904 E7.00527
G1 X168.903 Y64.89 E7.02074
G1 X169.182 Y64.883 E7.03374
G1 X169.924 Y64.874 E7.06829
G1 X172.946 Y64.872 E7.20901
G1 X174.401 Y64.86 E7.27676
G1 X175.798 Y64.839 E7.34182
G1 X177.143 Y64.825 E7.40445
G1 X178.462 Y64.828 E7.46587
G1 X179.673 Y64.823 E7.52226
G1 X180.301 Y64.817 E7.5515
G1 X180.529 Y64.817 E7.56212
G1 X181.189 Y64.824 E7.59285
G1 X183.08 Y64.824 E7.6809
G1 X183.721 Y64.82 E7.71075
G1 X184.348 Y64.826 E7.73995
G1 X185.656 Y64.848 E7.80086
G1 X187.652 Y64.869 E7.89381
G1 X189.041 Y64.869 E7.95849
G1 X189.748 Y64.879 E7.99141
G1 X190.58 Y64.923 E8.03021
G1 X190.846 Y64.947 E8.04264
G1 X191.389 Y65.009 E8.06809
G1 X191.702 Y65.053 E8.08281
G1 X192.625 Y65.223 E8.12651
G1 X193.251 Y65.386 E8.15663
G1 X193.539 Y65.47 E8.1706
G1 X193.786 Y65.545 E8.18262
G1 X193.994 Y65.611 E8.19278
G1 X194.875 Y65.933 E8.23646
G1 X195.519 Y66.224 E8.26937
G1 X195.755 Y66.34 E8.28161
G1 X196.147 Y66.543 E8.30217
G1 X196.383 Y66.671 E8.31467
G1 X197.483 Y67.353 E8.37494
G1 X197.585 Y67.425 E8.38075
G1 X197.972 Y67.712 E8.40319
G1 X198.246 Y67.924 E8.41932
G1 X199.059 Y68.618 E8.46909
G1 X199.544 Y69.075 E8.50012
G1 X200.198 Y69.747 E8.54378
G1 X200.793 Y70.472 E8.58746
G1 X201.324 Y71.245 E8.63112
G1 X201.787 Y72.06 E8.67477
G1 X202.18 Y72.912 E8.71846
G1 X202.365 Y73.399 E8.74272
G1 X202.419 Y73.551 E8.75023
G1 X202.695 Y74.447 E8.79389
G1 X202.894 Y75.364 E8.83758
G1 X203.014 Y76.294 E8.88124
G1 X203.054 Y77.231 E8.92491
G1 X202.982 Y78.488 E8.98354
G1 X202.925 Y78.979 E9.00656
G1 X202.664 Y80.993 E9.10112
G1 X202.41 Y83.513 E9.21906
G1 X202.23 Y86.001 E9.33521
G1 X202.12 Y88.499 E9.45164
G1 X202.079 Y91.263 E9.58036
G1 X202.079 Y120.854 E10.95824
G1 X202.116 Y123.462 E11.07969
G1 X202.223 Y125.984 E11.19723
G1 X202.4 Y128.478 E11.31366
G1 X202.648 Y130.976 E11.43055
G1 X202.964 Y133.453 E11.54682
G1 X203.225 Y135.07 E11.62309
G1 X203.423 Y136.379 E11.68473
G1 X203.54 Y137.631 E11.74329
G1 X203.55 Y138 E11.76048
G1 X203.557 Y138.625 E11.78958
G1 X203.554 Y145.956 E12.13094
G1 X203.536 Y157.022 E12.64622
G1 X203.526 Y157.651 E12.67551
G1 X203.497 Y158.281 E12.70488
G1 X203.465 Y158.717 E12.72524
G1 X203.325 Y159.837 E12.7778
G1 X203.266 Y160.169 E12.7935
G1 X203.02 Y161.242 E12.84476
G1 X202.937 Y161.535 E12.85894
G1 X202.734 Y162.174 E12.89016
G1 X202.404 Y163.012 E12.93209
G1 X202.3 Y163.247 E12.94406
G1 X202.179 Y163.511 E12.95758
G1 X202.095 Y163.688 E12.96671
G1 X201.657 Y164.518 E13.01041
G1 X201.254 Y165.156 E13.04554
G1 X200.927 Y165.637 E13.07263
G1 X200.367 Y166.39 E13.11632
G1 X199.787 Y167.048 E13.15717
G1 X199.619 Y167.224 E13.1685
G1 X199.34 Y167.506 E13.18697
G1 X199.182 Y167.66 E13.19724
G1 X198.483 Y168.286 E13.24093
G1 X197.981 Y168.674 E13.27048
G1 X197.528 Y169.004 E13.29657
G1 X196.747 Y169.523 E13.34024
G1 X195.953 Y169.961 E13.38246
G1 X195.73 Y170.072 E13.39406
G1 X195.275 Y170.285 E13.41745
G1 X195.008 Y170.403 E13.43105
G1 X193.743 Y170.872 E13.49387
G1 X193.604 Y170.914 E13.50063
G1 X193.201 Y171.027 E13.52012
G1 X192.887 Y171.109 E13.53523
G1 X191.971 Y171.307 E13.57887
G1 X191.228 Y171.409 E13.61379
G1 X190.71 Y171.462 E13.63804
G1 X189.762 Y171.518 E13.68226
G1 X188.758 Y171.532 E13.72901
G1 X135.815 Y171.532 E16.19426
G1 X135.187 Y171.523 E16.22351
G1 X134.537 Y171.494 E16.2538
G1 X134.062 Y171.459 E16.27598
G1 X133.728 Y171.43 E16.29159
G1 X132.229 Y171.274 E16.36177
G1 X130.024 Y171.066 E16.4649
G1 X127.56 Y170.901 E16.57989
G1 X125.005 Y170.802 E16.69895
G1 X122.515 Y170.777 E16.8149
G1 X119.983 Y170.822 E16.93282
G1 X117.478 Y170.938 E17.04959
G1 X114.977 Y171.125 E17.16637
G1 X112.481 Y171.382 E17.28321
G1 X109.936 Y171.718 E17.40274
G1 X107.506 Y172.109 E17.51735
G1 X106.656 Y172.269 E17.55762
G1 X104.521 Y172.656 E17.65866
G1 X103.84 Y172.757 E17.69071
G1 X103.55 Y172.791 E17.70431
G1 X102.825 Y172.852 E17.73819
G1 X102.509 Y172.868 E17.75292
G1 X102.151 Y172.88 E17.7696
G1 X101.709 Y172.888 E17.79019
G1 X99.047 Y172.971 E17.9142
G1 X96.587 Y173.118 E18.02895
G1 X94.042 Y173.342 E18.14792
G1 X91.563 Y173.632 E18.26414
G1 X89.027 Y174 E18.38346
G1 X86.588 Y174.426 E18.49875
G1 X83.847 Y174.987 E18.62903
G1 X83.179 Y175.135 E18.66089
G1 X81.919 Y175.338 E18.72031
G1 X81.322 Y175.399 E18.74826
G1 X81.03 Y175.425 E18.76191
G1 X80.605 Y175.457 E18.78175
G1 X79.944 Y175.487 E18.81257
G1 X78.977 Y175.5 E18.8576
G1 X24.675 Y175.499 E21.38613
G1 X24.016 Y175.49 E21.41681
G1 X23.364 Y175.462 E21.4472
G1 X22.735 Y175.416 E21.47657
G1 X22.408 Y175.387 E21.49186
G1 X21.972 Y175.342 E21.51226
G1 X21.044 Y175.206 E21.55594
G1 X20.429 Y175.07 E21.58527
G1 X19.846 Y174.924 E21.61325
G1 X19.516 Y174.837 E21.62914
G1 X19.1 Y174.719 E21.64928
G1 X18.21 Y174.424 E21.69294
G1 X17.609 Y174.177 E21.72319
G1 X17.019 Y173.913 E21.75329
G1 X16.718 Y173.772 E21.76877
G1 X16.369 Y173.603 E21.78683
G1 X15.543 Y173.159 E21.83049
G1 X14.98 Y172.801 E21.86156
G1 X14.437 Y172.432 E21.89213
G1 X14.147 Y172.228 E21.90864
G1 X13.82 Y171.99 E21.92747
G1 X13.086 Y171.406 E21.97115
G1 X12.661 Y171.017 E21.99798
G1 X12.305 Y170.674 E22.02099
G1 X12.074 Y170.445 E22.03614
G1 X11.713 Y170.076 E22.06018
G1 X11.086 Y169.379 E22.10383
G1 X10.682 Y168.857 E22.13457
G1 X10.297 Y168.328 E22.16503
G1 X10.095 Y168.04 E22.18141
G1 X9.874 Y167.715 E22.19971
G1 X9.38 Y166.918 E22.24338
G1 X9.079 Y166.344 E22.27356
G1 X8.787 Y165.744 E22.30463
G1 X8.644 Y165.437 E22.3204
G1 X8.485 Y165.083 E22.33847
G1 X8.137 Y164.212 E22.38214
G1 X7.936 Y163.576 E22.4132
G1 X7.754 Y162.934 E22.44427
G1 X7.674 Y162.635 E22.45869
G1 X7.579 Y162.26 E22.4767
G1 X7.387 Y161.342 E22.52037
G1 X7.298 Y160.669 E22.55198
G1 X7.234 Y160.038 E22.58151
G1 X7.206 Y159.717 E22.59652
G1 X7.174 Y159.272 E22.61729
G1 X7.147 Y158.632 E22.64712
G1 X7.136 Y157.745 E22.68843
G1 X7.137 Y77.027 E26.44699
G1 X7.146 Y76.39 E26.47666
G1 X7.174 Y75.745 E26.50672
G1 X7.22 Y75.114 E26.53618
G1 X7.249 Y74.789 E26.55137
G1 X7.293 Y74.361 E26.57141
G1 X7.428 Y73.433 E26.61507
G1 X7.569 Y72.795 E26.6455
G1 X7.731 Y72.153 E26.67633
G1 X7.808 Y71.867 E26.69012
G1 X7.914 Y71.49 E26.70836
G1 X8.206 Y70.598 E26.75206
G1 X8.462 Y69.975 E26.78342
G1 X8.704 Y69.434 E26.81102
G1 X8.839 Y69.145 E26.82587
G1 X9.006 Y68.799 E26.84376
G1 X9.449 Y67.972 E26.88745
G1 X9.776 Y67.453 E26.91601
G1 X10.279 Y66.703 E26.95806
G1 X10.548 Y66.32 E26.97986
G1 X10.606 Y66.241 E26.98442
G1 X11.172 Y65.533 E27.02663
G1 X11.452 Y65.211 E27.0465
G1 X11.94 Y64.685 E27.07991
G1 X12.212 Y64.414 E27.09779
G1 X12.624 Y64.015 E27.12449
G1 X13.325 Y63.392 E27.16816
G1 X13.816 Y63.014 E27.19702
G1 X14.268 Y62.686 E27.22302
G1 X14.554 Y62.486 E27.23927
G1 X14.924 Y62.235 E27.26009
G1 X15.722 Y61.742 E27.30377
G1 X16.284 Y61.448 E27.3333
G1 X16.968 Y61.115 E27.36872
G1 X17.287 Y60.966 E27.38512
G1 X17.584 Y60.833 E27.40027
G1 X18.456 Y60.486 E27.44397
G1 X19.078 Y60.29 E27.47434
G0 F6000 X19.187 Y60.674
G1 F1200 X19.758 Y60.512 E27.50198
G1 X20.069 Y60.429 E27.51696
G1 X20.491 Y60.323 E27.53723
G1 X21.392 Y60.138 E27.58006
G1 X21.984 Y60.06 E27.60786
G1 X22.536 Y60.003 E27.6337
G1 X22.852 Y59.975 E27.64847
G1 X23.317 Y59.941 E27.67018
G1 X23.921 Y59.914 E27.69833
G1 X24.904 Y59.9 E27.74411
G1 X79.209 Y59.901 E30.27278
G1 X79.863 Y59.91 E30.30324
G1 X80.488 Y59.937 E30.33237
G1 X81.091 Y59.981 E30.36052
G1 X81.412 Y60.009 E30.37552
G1 X81.866 Y60.056 E30.39678
G1 X82.776 Y60.191 E30.43961
G1 X83.371 Y60.323 E30.46799
G1 X83.925 Y60.463 E30.4946
G1 X84.245 Y60.549 E30.51003
G1 X84.755 Y60.695 E30.53473
G1 X85.378 Y60.894 E30.56518
G1 X87.716 Y61.722 E30.68068
G1 X90.097 Y62.491 E30.79718
G1 X92.508 Y63.194 E30.91413
G1 X94.957 Y63.834 E31.03199
G1 X97.448 Y64.41 E31.15104
G1 X99.892 Y64.904 E31.26715
G1 X103.577 Y65.514 E31.44107
G1 X105.255 Y65.759 E31.52003
G1 X107.802 Y66.094 E31.63966
G1 X110.326 Y66.352 E31.7578
G1 X112.863 Y66.541 E31.87626
G1 X115.396 Y66.657 E31.99433
G1 X117.911 Y66.7 E32.11145
G1 X120.418 Y66.674 E32.2282
G1 X122.972 Y66.574 E32.34721
G1 X125.471 Y66.405 E32.46384
G1 X128 Y66.163 E32.58214
G1 X130.536 Y65.846 E32.70115
G1 X133.095 Y65.455 E32.82169
G1 X133.579 Y65.392 E32.84441
G1 X133.984 Y65.349 E32.86338
G1 X134.384 Y65.314 E32.88208
G1 X134.487 Y65.307 E32.88688
G1 X135.03 Y65.284 E32.91219
G1 X135.931 Y65.269 E32.95415
G1 X143.821 Y65.272 E33.32154
G1 X144.517 Y65.27 E33.35395
G1 X145.671 Y65.263 E33.40769
G1 X155.14 Y65.275 E33.8486
G1 X155.876 Y65.287 E33.88288
G1 X156.144 Y65.295 E33.89536
G1 X156.703 Y65.32 E33.92142
G1 X158.551 Y65.428 E34.00762
G1 X161.067 Y65.503 E34.12482
G1 X163.605 Y65.507 E34.243
G1 X166.128 Y65.439 E34.36053
G1 X168.763 Y65.296 E34.48341
G1 X169.187 Y65.283 E34.50316
G1 X169.924 Y65.274 E34.53748
G1 X172.949 Y65.272 E34.67833
G1 X174.41 Y65.26 E34.74637
G1 X175.802 Y65.239 E34.81119
G1 X177.142 Y65.225 E34.87359
G1 X178.463 Y65.228 E34.9351
G1 X179.675 Y65.223 E34.99154
G1 X180.305 Y65.217 E35.02088
G1 X180.524 Y65.217 E35.03107
G1 X181.184 Y65.224 E35.06181
G1 X183.083 Y65.224 E35.15023
G1 X183.718 Y65.22 E35.1798
G1 X184.341 Y65.226 E35.20881
G1 X185.645 Y65.248 E35.26954
G1 X187.648 Y65.269 E35.36281
G1 X189.035 Y65.269 E35.4274
G1 X189.742 Y65.279 E35.46032
G1 X190.545 Y65.321 E35.49776
G1 X190.811 Y65.345 E35.5102
G1 X191.334 Y65.405 E35.53471
G1 X191.647 Y65.449 E35.54943
G1 X192.552 Y65.617 E35.59229
G1 X193.139 Y65.77 E35.62054
G1 X193.665 Y65.926 E35.64609
G1 X193.873 Y65.992 E35.65625
G1 X194.738 Y66.309 E35.69915
G1 X195.343 Y66.583 E35.73007
G1 X195.579 Y66.699 E35.74232
G1 X195.957 Y66.894 E35.76212
G1 X196.193 Y67.022 E35.77462
G1 X197.252 Y67.68 E35.83268
G1 X197.354 Y67.752 E35.83849
G1 X197.728 Y68.028 E35.86013
G1 X198.002 Y68.24 E35.87627
G1 X198.784 Y68.909 E35.92419
G1 X199.269 Y69.366 E35.95522
G1 X199.911 Y70.026 E35.99809
G1 X200.494 Y70.739 E36.04098
G1 X201.012 Y71.5 E36.08384
G1 X201.462 Y72.303 E36.1267
G1 X201.988 Y73.532 E36.18895
G1 X202.042 Y73.684 E36.19646
G1 X202.313 Y74.565 E36.23938
G1 X202.505 Y75.465 E36.28223
G1 X202.619 Y76.378 E36.32508
G1 X202.654 Y77.298 E36.36795
G1 X202.585 Y78.442 E36.42131
G1 X202.528 Y78.928 E36.4441
G1 X202.267 Y80.939 E36.53852
G1 X202.012 Y83.478 E36.65735
G1 X201.833 Y85.955 E36.77299
G1 X201.72 Y88.51 E36.89207
G1 X201.679 Y91.258 E37.02005
G1 X201.679 Y120.86 E38.39844
G1 X201.716 Y123.484 E38.52064
G1 X201.823 Y125.993 E38.63757
G1 X202.001 Y128.509 E38.75502
G1 X202.251 Y131.033 E38.87312
G1 X202.568 Y133.507 E38.98927
G1 X202.83 Y135.13 E39.06582
G1 X203.028 Y136.439 E39.12746
G1 X203.14 Y137.646 E39.18391
G1 X203.15 Y138.005 E39.20063
G1 X203.157 Y138.624 E39.22946
G1 X203.154 Y145.956 E39.57086
G1 X203.136 Y157.016 E40.08586
G1 X203.126 Y157.645 E40.11516
G1 X203.099 Y158.252 E40.14345
G1 X203.067 Y158.688 E40.16381
G1 X202.931 Y159.767 E40.21445
G1 X202.872 Y160.099 E40.23015
G1 X202.635 Y161.133 E40.27954
G1 X202.552 Y161.426 E40.29372
G1 X202.357 Y162.042 E40.32381
G1 X202.038 Y162.85 E40.36426
G1 X201.934 Y163.085 E40.37623
G1 X201.817 Y163.34 E40.38929
G1 X201.733 Y163.517 E40.39841
G1 X201.303 Y164.331 E40.44128
G1 X200.923 Y164.931 E40.47435
G1 X200.596 Y165.412 E40.50143
G1 X200.046 Y166.151 E40.54433
G1 X199.498 Y166.772 E40.58289
G1 X199.33 Y166.948 E40.59422
G1 X199.061 Y167.22 E40.61204
G1 X198.903 Y167.374 E40.62231
G1 X198.216 Y167.987 E40.66518
G1 X197.745 Y168.351 E40.6929
G1 X197.292 Y168.681 E40.719
G1 X196.525 Y169.19 E40.76186
G1 X195.774 Y169.602 E40.80175
G1 X195.551 Y169.713 E40.81335
G1 X195.113 Y169.919 E40.83589
G1 X194.846 Y170.037 E40.84948
G1 X193.627 Y170.489 E40.91002
G1 X193.488 Y170.531 E40.91678
G1 X193.1 Y170.64 E40.93554
G1 X192.786 Y170.722 E40.95066
G1 X191.886 Y170.916 E40.99353
G1 X191.187 Y171.011 E41.02637
G1 X190.669 Y171.064 E41.05062
G1 X189.756 Y171.118 E41.09321
G1 X188.758 Y171.132 E41.13968
G1 X135.821 Y171.132 E43.60465
G1 X135.193 Y171.123 E43.6339
G1 X134.566 Y171.095 E43.66312
G1 X134.091 Y171.06 E43.6853
G1 X133.769 Y171.032 E43.70035
G1 X132.208 Y170.869 E43.77343
G1 X130.089 Y170.669 E43.87254
G1 X127.568 Y170.501 E43.99019
G1 X125.024 Y170.402 E44.10874
G1 X122.512 Y170.377 E44.22571
G1 X119.994 Y170.422 E44.34298
G1 X117.429 Y170.54 E44.46254
G1 X114.943 Y170.726 E44.57863
G1 X112.42 Y170.986 E44.69673
G1 X109.896 Y171.319 E44.81528
G1 X107.433 Y171.715 E44.93144
G1 X106.585 Y171.875 E44.97162
G1 X104.45 Y172.262 E45.07265
G1 X103.793 Y172.36 E45.10359
G1 X103.503 Y172.394 E45.11718
G1 X102.805 Y172.452 E45.1498
G1 X102.489 Y172.468 E45.16453
G1 X102.144 Y172.48 E45.1806
G1 X101.69 Y172.488 E45.20175
G1 X99.045 Y172.571 E45.32497
G1 X96.528 Y172.721 E45.44238
G1 X94.032 Y172.941 E45.55905
G1 X91.491 Y173.238 E45.67818
G1 X88.978 Y173.603 E45.79642
G1 X86.505 Y174.034 E45.91331
G1 X83.747 Y174.599 E46.0444
G1 X83.093 Y174.744 E46.0756
G1 X81.878 Y174.94 E46.1329
G1 X81.281 Y175.001 E46.16085
G1 X81 Y175.026 E46.17398
